cs_client/src/assets/icons/cherrytree/circle-grey.svg

<?xml version="1.0" encoding="UTF-8" standalone="no"?>
<!-- Created with Inkscape (http://www.inkscape.org/) -->

<svg
   xmlns:dc="http://purl.org/dc/elements/1.1/"
   xmlns:cc="http://creativecommons.org/ns#"
   xmlns:rdf="http://www.w3.org/1999/02/22-rdf-syntax-ns#"
   xmlns:svg="http://www.w3.org/2000/svg"
   xmlns="http://www.w3.org/2000/svg"
   xmlns:xlink="http://www.w3.org/1999/xlink"
   xmlns:sodipodi="http://sodipodi.sourceforge.net/DTD/sodipodi-0.dtd"
   xmlns:inkscape="http://www.inkscape.org/namespaces/inkscape"
   width="48"
   height="48"
   id="svg2"
   sodipodi:version="0.32"
   inkscape:version="0.91 r"
   version="1.0"
   sodipodi:docname="empathy-offline.svg"
   inkscape:export-filename="/home/hbons/GUI/Tango/Gaim Refresh/status/32/offline.png"
   inkscape:export-xdpi="90"
   inkscape:export-ydpi="90"
   inkscape:output_extension="org.inkscape.output.svg.inkscape">
  <defs
     id="defs4">
    <filter
       inkscape:collect="always"
       id="filter10542"
       x="-0.129375"
       width="1.25875"
       y="-0.29571429"
       height="1.5914286">
      <feGaussianBlur
         inkscape:collect="always"
         stdDeviation="0.8625"
         id="feGaussianBlur10544" />
    </filter>
    <filter
       inkscape:collect="always"
       id="filter10591"
       x="-0.29381531"
       width="1.5876306"
       y="-0.24673747"
       height="1.4934748">
      <feGaussianBlur
         inkscape:collect="always"
         stdDeviation="0.43251839"
         id="feGaussianBlur10593" />
    </filter>
    <linearGradient
       id="linearGradient3275"
       inkscape:collect="always">
      <stop
         id="stop3277"
         offset="0"
         style="stop-color:#2e3436;stop-opacity:1;" />
      <stop
         id="stop3279"
         offset="1"
         style="stop-color:#61635f;stop-opacity:1" />
    </linearGradient>
    <linearGradient
       inkscape:collect="always"
       xlink:href="#linearGradient3275"
       id="linearGradient9476"
       gradientUnits="userSpaceOnUse"
       gradientTransform="matrix(2.798139,0,0,2.7981393,1.1148802,0.1148595)"
       x1="14.345539"
       y1="14.69435"
       x2="6.8097677"
       y2="4.3450422" />
    <linearGradient
       id="linearGradient3295"
       inkscape:collect="always">
      <stop
         id="stop3297"
         offset="0"
         style="stop-color:#babdb6;stop-opacity:1" />
      <stop
         id="stop3299"
         offset="1"
         style="stop-color:#888a85;stop-opacity:1" />
    </linearGradient>
    <linearGradient
       inkscape:collect="always"
       xlink:href="#linearGradient3295"
       id="linearGradient9474"
       gradientUnits="userSpaceOnUse"
       gradientTransform="matrix(2.798139,0,0,2.7981393,1.1148802,0.1148595)"
       x1="4.8374491"
       y1="3.565635"
       x2="12.060304"
       y2="13.821809" />
    <linearGradient
       id="linearGradient3303"
       inkscape:collect="always">
      <stop
         id="stop3305"
         offset="0"
         style="stop-color:#ffffff;stop-opacity:1;" />
      <stop
         id="stop3307"
         offset="1"
         style="stop-color:#ffffff;stop-opacity:0;" />
    </linearGradient>
    <linearGradient
       inkscape:collect="always"
       xlink:href="#linearGradient3303"
       id="linearGradient9906"
       gradientUnits="userSpaceOnUse"
       gradientTransform="matrix(-3.0771036,0,0,-3.0770117,48.11683,47.1155)"
       x1="6.8490844"
       y1="8.6799088"
       x2="-3.3852992"
       y2="-4.1349444" />
    <linearGradient
       id="linearGradient11259"
       inkscape:collect="always">
      <stop
         id="stop11261"
         offset="0"
         style="stop-color:#ffffff;stop-opacity:1;" />
      <stop
         id="stop11263"
         offset="1"
         style="stop-color:#ffffff;stop-opacity:0;" />
    </linearGradient>
    <radialGradient
       inkscape:collect="always"
       xlink:href="#linearGradient11259"
       id="radialGradient9837"
       gradientUnits="userSpaceOnUse"
       gradientTransform="matrix(1.023438,0,0,0.8870879,-0.2709505,0.7064648)"
       cx="11.736404"
       cy="7.3689327"
       fx="11.800528"
       fy="1.1734189"
       r="9.975256" />
  </defs>
  <sodipodi:namedview
     id="base"
     pagecolor="#ffffff"
     bordercolor="#666666"
     borderopacity="1.0"
     inkscape:pageopacity="0.0"
     inkscape:pageshadow="2"
     inkscape:zoom="8.488013"
     inkscape:cx="10.875536"
     inkscape:cy="16.23765"
     inkscape:document-units="px"
     inkscape:current-layer="layer1"
     showgrid="true"
     fill="#888a85"
     inkscape:window-width="1364"
     inkscape:window-height="716"
     inkscape:window-x="0"
     inkscape:window-y="0"
     inkscape:window-maximized="0">
    <inkscape:grid
       type="xygrid"
       id="grid6336"
       visible="true"
       enabled="true" />
  </sodipodi:namedview>
  <metadata
     id="metadata7">
    <rdf:RDF>
      <cc:Work
         rdf:about="">
        <dc:format>image/svg+xml</dc:format>
        <dc:type
           rdf:resource="http://purl.org/dc/dcmitype/StillImage" />
      </cc:Work>
    </rdf:RDF>
  </metadata>
  <g
     inkscape:label="Layer 1"
     inkscape:groupmode="layer"
     id="layer1">
    <rect
       inkscape:label="48x48"
       y="-1"
       x="-1"
       height="48"
       width="48"
       id="rect9231"
       style="opacity:0;fill:#babdb6;fill-opacity:1;fill-rule:nonzero;stroke:none;stroke-width:2;marker:none;marker-start:none;marker-mid:none;marker-end:none;visibility:visible;display:inline;overflow:visible;enable-background:accumulate" />
    <path
       style="opacity:0.75;fill:#2e3436;fill-opacity:1;fill-rule:evenodd;stroke:none;stroke-width:0.99999917;stroke-miterlimit:4;stroke-opacity:1;display:inline;filter:url(#filter10542);enable-background:new"
       d="M 52.000003,144.5 C 52.000003,146.432 48.416002,148 44.000003,148 C 39.584003,148 36.000003,146.432 36.000003,144.5 C 36.000003,142.568 39.584003,141 44.000003,141 C 48.416002,141 52.000003,142.568 52.000003,144.5 z"
       id="path9247"
       transform="matrix(2.1000004,0,0,2.0998147,-67.9125,-266.22267)" />
    <path
       sodipodi:type="arc"
       style="opacity:0.2;fill:#ffffff;fill-opacity:1;stroke:none;display:inline;filter:url(#filter10591);enable-background:new"
       id="path9448"
       sodipodi:cx="11.484269"
       sodipodi:cy="4.7465701"
       sodipodi:rx="1.8659533"
       sodipodi:ry="1.9428998"
       d="M 13.350222,4.7465701 A 1.8659533,1.9428998 0 1 1 9.6183158,4.7465701 A 1.8659533,1.9428998 0 1 1 13.350222,4.7465701 z"
       transform="matrix(6.1643533,-3.5894243,2.6453701,4.6210964,-64.04477,36.18816)" />
    <path
       style="fill:url(#linearGradient9474);fill-opacity:1;stroke:url(#linearGradient9476);stroke-width:0.99999821;stroke-miterlimit:4;stroke-opacity:1;display:inline;enable-background:new"
       d="M 38.34994,37.34994 C 30.15104,45.54881 16.84411,45.55019 8.6469402,37.35301 C 0.44981016,29.15587 0.45119016,15.848925 8.6500502,7.6500325 C 16.84893,-0.54883053 30.15584,-0.55021053 38.35302,7.6469275 C 46.55019,15.84411 46.54881,29.15104 38.34994,37.34994 z"
       id="path9450" />
    <path
       style="opacity:0.4;fill:none;fill-opacity:1;stroke:url(#linearGradient9906);stroke-width:0.99999779;stroke-miterlimit:4;stroke-opacity:1;display:inline;enable-background:new"
       d="M 23.49996,42.5 C 28.6307,42.49945 33.73146,40.53829 37.63542,36.63442 C 45.45575,28.81435 45.45394,16.18269 37.63542,8.3644175 C 29.81694,0.54610647 17.18488,0.54427547 9.3645602,8.3644175 C 1.5441802,16.18449 1.5460502,28.81618 9.3645602,36.63442 C 13.26763,40.53743 18.37048,42.50054 23.49996,42.5 z"
       id="path9904" />
    <path
       transform="matrix(1.6929363,-0.9774173,0.9774173,1.6929363,-7.2230198,15.445035)"
       d="M 21.781414,10.983024 A 9.975256,9.975256 0 1 1 1.8309021,10.983024 A 9.975256,9.975256 0 1 1 21.781414,10.983024 z"
       sodipodi:ry="9.975256"
       sodipodi:rx="9.975256"
       sodipodi:cy="10.983024"
       sodipodi:cx="11.806158"
       id="path9829"
       style="fill:url(#radialGradient9837);fill-opacity:1;stroke:none;stroke-width:0.51155168;stroke-miterlimit:4;stroke-dasharray:none;stroke-opacity:1;display:inline;enable-background:new"
       sodipodi:type="arc" />
  </g>
</svg>

<svg xmlns="http://www.w3.org/2000/svg" xmlns:xlink="http://www.w3.org/1999/xlink" width="48" height="48" version="1.0"><defs><linearGradient id="a"><stop offset="0" stop-color="#2e3436"/><stop offset="1" stop-color="#61635f"/></linearGradient><linearGradient xlink:href="#a" id="h" gradientUnits="userSpaceOnUse" gradientTransform="matrix(2.79814 0 0 2.79814 1.115 .115)" x1="14.346" y1="14.694" x2="6.81" y2="4.345"/><linearGradient id="b"><stop offset="0" stop-color="#babdb6"/><stop offset="1" stop-color="#888a85"/></linearGradient><linearGradient xlink:href="#b" id="g" gradientUnits="userSpaceOnUse" gradientTransform="matrix(2.79814 0 0 2.79814 1.115 .115)" x1="4.837" y1="3.566" x2="12.06" y2="13.822"/><linearGradient id="c"><stop offset="0" stop-color="#fff"/><stop offset="1" stop-color="#fff" stop-opacity="0"/></linearGradient><linearGradient xlink:href="#c" id="i" gradientUnits="userSpaceOnUse" gradientTransform="matrix(-3.0771 0 0 -3.07701 48.117 47.115)" x1="6.849" y1="8.68" x2="-3.385" y2="-4.135"/><linearGradient id="d"><stop offset="0" stop-color="#fff"/><stop offset="1" stop-color="#fff" stop-opacity="0"/></linearGradient><filter id="e" x="-.129" width="1.259" y="-.296" height="1.591"><feGaussianBlur stdDeviation=".863"/></filter><filter id="f" x="-.294" width="1.588" y="-.247" height="1.493"><feGaussianBlur stdDeviation=".433"/></filter><radialGradient xlink:href="#d" id="j" gradientUnits="userSpaceOnUse" gradientTransform="matrix(1.02344 0 0 .88709 -.271 .706)" cx="11.736" cy="7.369" fx="11.801" fy="1.173" r="9.975"/></defs><path d="M52 144.5c0 1.932-3.584 3.5-8 3.5s-8-1.568-8-3.5 3.584-3.5 8-3.5 8 1.568 8 3.5z" transform="matrix(2.1 0 0 2.09981 -67.912 -266.223)" opacity=".75" fill="#2e3436" fill-rule="evenodd" filter="url(#e)" enable-background="new"/><path d="M13.35 4.747a1.866 1.943 0 11-3.732 0 1.866 1.943 0 113.732 0z" transform="matrix(6.16435 -3.58942 2.64537 4.6211 -64.045 36.188)" opacity=".2" fill="#fff" filter="url(#f)" enable-background="new"/><path d="M38.35 37.35c-8.199 8.199-21.506 8.2-29.703.003S.45 15.849 8.65 7.65c8.199-8.199 21.506-8.2 29.703-.003s8.196 21.504-.003 29.703z" fill="url(#g)" stroke="url(#h)" enable-background="new"/><path d="M23.5 42.5c5.13 0 10.231-1.962 14.135-5.866 7.82-7.82 7.819-20.451 0-28.27-7.818-7.818-20.45-7.82-28.27 0s-7.819 20.452 0 28.27A19.915 19.915 0 0023.5 42.5z" opacity=".4" fill="none" stroke="url(#i)" enable-background="new"/><path transform="scale(1.95483) rotate(-30 12.896 10.845)" d="M21.781 10.983a9.975 9.975 0 11-19.95 0 9.975 9.975 0 1119.95 0z" fill="url(#j)" enable-background="new"/></svg>
